portal/assets/img/component/checkbox/anatomy-checkbox.svg

<svg width="187" height="90" viewBox="0 0 187 90" fill="none" xmlns="http://www.w3.org/2000/svg">
<rect x="0.5" y="62.5" width="23" height="23" rx="4.5" fill="white" stroke="#98A2B3"/>
<path d="M44.7727 80.1818C43.9545 80.1818 43.25 79.9886 42.6591 79.6023C42.0682 79.2159 41.6136 78.6837 41.2955 78.0057C40.9773 77.3277 40.8182 76.553 40.8182 75.6818C40.8182 74.7955 40.9811 74.0133 41.3068 73.3352C41.6364 72.6534 42.0947 72.1212 42.6818 71.7386C43.2727 71.3523 43.9621 71.1591 44.75 71.1591C45.3636 71.1591 45.9167 71.2727 46.4091 71.5C46.9015 71.7273 47.3049 72.0455 47.6193 72.4545C47.9337 72.8636 48.1288 73.3409 48.2045 73.8864H46.8636C46.7614 73.4886 46.5341 73.1364 46.1818 72.8295C45.8333 72.5189 45.3636 72.3636 44.7727 72.3636C44.25 72.3636 43.7917 72.5 43.3977 72.7727C43.0076 73.0417 42.7027 73.4223 42.483 73.9148C42.267 74.4034 42.1591 74.9773 42.1591 75.6364C42.1591 76.3106 42.2652 76.8977 42.4773 77.3977C42.6932 77.8977 42.9962 78.286 43.3864 78.5625C43.7803 78.839 44.2424 78.9773 44.7727 78.9773C45.1212 78.9773 45.4375 78.9167 45.7216 78.7955C46.0057 78.6742 46.2462 78.5 46.4432 78.2727C46.6402 78.0455 46.7803 77.7727 46.8636 77.4545H48.2045C48.1288 77.9697 47.9413 78.4337 47.642 78.8466C47.3466 79.2557 46.9545 79.5814 46.4659 79.8239C45.9811 80.0625 45.4167 80.1818 44.7727 80.1818ZM51.5057 74.75V80H50.1648V68.3636H51.5057V72.6364H51.6193C51.8239 72.1856 52.1307 71.8277 52.5398 71.5625C52.9527 71.2936 53.5019 71.1591 54.1875 71.1591C54.7822 71.1591 55.303 71.2784 55.75 71.517C56.197 71.7519 56.5436 72.1136 56.7898 72.6023C57.0398 73.0871 57.1648 73.7045 57.1648 74.4545V80H55.8239V74.5455C55.8239 73.8523 55.6439 73.3163 55.2841 72.9375C54.928 72.5549 54.4337 72.3636 53.8011 72.3636C53.3617 72.3636 52.9678 72.4564 52.6193 72.642C52.2746 72.8277 52.0019 73.0985 51.8011 73.4545C51.6042 73.8106 51.5057 74.2424 51.5057 74.75ZM63.277 80.1818C62.4361 80.1818 61.7107 79.9962 61.1009 79.625C60.4948 79.25 60.027 78.7273 59.6974 78.0568C59.3717 77.3826 59.2088 76.5985 59.2088 75.7045C59.2088 74.8106 59.3717 74.0227 59.6974 73.3409C60.027 72.6553 60.4853 72.1212 61.0724 71.7386C61.6634 71.3523 62.3527 71.1591 63.1406 71.1591C63.5952 71.1591 64.044 71.2348 64.4872 71.3864C64.9304 71.5379 65.3338 71.7841 65.6974 72.125C66.0611 72.4621 66.3509 72.9091 66.5668 73.4659C66.7827 74.0227 66.8906 74.7083 66.8906 75.5227V76.0909H60.1634V74.9318H65.527C65.527 74.4394 65.4285 74 65.2315 73.6136C65.0384 73.2273 64.7618 72.9223 64.402 72.6989C64.0459 72.4754 63.6255 72.3636 63.1406 72.3636C62.6065 72.3636 62.1444 72.4962 61.7543 72.7614C61.3679 73.0227 61.0705 73.3636 60.8622 73.7841C60.6539 74.2045 60.5497 74.6553 60.5497 75.1364V75.9091C60.5497 76.5682 60.6634 77.1269 60.8906 77.5852C61.1217 78.0398 61.4418 78.3864 61.8509 78.625C62.2599 78.8598 62.7353 78.9773 63.277 78.9773C63.6293 78.9773 63.9474 78.928 64.2315 78.8295C64.5194 78.7273 64.7675 78.5758 64.9759 78.375C65.1842 78.1705 65.3452 77.9167 65.4588 77.6136L66.7543 77.9773C66.6179 78.4167 66.3887 78.803 66.0668 79.1364C65.7448 79.4659 65.3471 79.7235 64.8736 79.9091C64.4001 80.0909 63.8679 80.1818 63.277 80.1818ZM72.4759 80.1818C71.6577 80.1818 70.9531 79.9886 70.3622 79.6023C69.7713 79.2159 69.3168 78.6837 68.9986 78.0057C68.6804 77.3277 68.5213 76.553 68.5213 75.6818C68.5213 74.7955 68.6842 74.0133 69.0099 73.3352C69.3395 72.6534 69.7978 72.1212 70.3849 71.7386C70.9759 71.3523 71.6652 71.1591 72.4531 71.1591C73.0668 71.1591 73.6198 71.2727 74.1122 71.5C74.6046 71.7273 75.008 72.0455 75.3224 72.4545C75.6368 72.8636 75.8319 73.3409 75.9077 73.8864H74.5668C74.4645 73.4886 74.2372 73.1364 73.8849 72.8295C73.5365 72.5189 73.0668 72.3636 72.4759 72.3636C71.9531 72.3636 71.4948 72.5 71.1009 72.7727C70.7107 73.0417 70.4058 73.4223 70.1861 73.9148C69.9702 74.4034 69.8622 74.9773 69.8622 75.6364C69.8622 76.3106 69.9683 76.8977 70.1804 77.3977C70.3963 77.8977 70.6993 78.286 71.0895 78.5625C71.4834 78.839 71.9455 78.9773 72.4759 78.9773C72.8243 78.9773 73.1406 78.9167 73.4247 78.7955C73.7088 78.6742 73.9493 78.5 74.1463 78.2727C74.3433 78.0455 74.4834 77.7727 74.5668 77.4545H75.9077C75.8319 77.9697 75.6444 78.4337 75.3452 78.8466C75.0497 79.2557 74.6577 79.5814 74.169 79.8239C73.6842 80.0625 73.1198 80.1818 72.4759 80.1818ZM79.1179 76.8182L79.0952 75.1591H79.3679L83.1861 71.2727H84.8452L80.777 75.3864H80.6634L79.1179 76.8182ZM77.8679 80V68.3636H79.2088V80H77.8679ZM83.4134 80L80.0043 75.6818L80.9588 74.75L85.1179 80H83.4134ZM86.7528 80V68.3636H88.0938V72.6591H88.2074C88.3059 72.5076 88.4422 72.3144 88.6165 72.0795C88.7945 71.8409 89.0483 71.6288 89.3778 71.4432C89.7112 71.2538 90.1619 71.1591 90.7301 71.1591C91.465 71.1591 92.1127 71.3428 92.6733 71.7102C93.2339 72.0777 93.6714 72.5985 93.9858 73.2727C94.3002 73.947 94.4574 74.7424 94.4574 75.6591C94.4574 76.5833 94.3002 77.3845 93.9858 78.0625C93.6714 78.7367 93.2358 79.2595 92.679 79.6307C92.1222 79.9981 91.4801 80.1818 90.7528 80.1818C90.1922 80.1818 89.7434 80.089 89.4062 79.9034C89.0691 79.714 88.8097 79.5 88.6278 79.2614C88.446 79.0189 88.3059 78.8182 88.2074 78.6591H88.0483V80H86.7528ZM88.071 75.6364C88.071 76.2955 88.1676 76.8769 88.3608 77.3807C88.554 77.8807 88.8362 78.2727 89.2074 78.5568C89.5786 78.8371 90.0331 78.9773 90.571 78.9773C91.1316 78.9773 91.5994 78.8295 91.9744 78.5341C92.3532 78.2348 92.6373 77.8333 92.8267 77.3295C93.0199 76.822 93.1165 76.2576 93.1165 75.6364C93.1165 75.0227 93.0218 74.4697 92.8324 73.9773C92.6468 73.4811 92.3646 73.089 91.9858 72.8011C91.6108 72.5095 91.1392 72.3636 90.571 72.3636C90.0256 72.3636 89.5672 72.5019 89.196 72.7784C88.8248 73.0511 88.5445 73.4337 88.3551 73.9261C88.1657 74.4148 88.071 74.9848 88.071 75.6364ZM100.054 80.1818C99.2661 80.1818 98.5748 79.9943 97.9801 79.6193C97.3892 79.2443 96.9271 78.7197 96.5938 78.0455C96.2642 77.3712 96.0994 76.5833 96.0994 75.6818C96.0994 74.7727 96.2642 73.9792 96.5938 73.3011C96.9271 72.6231 97.3892 72.0966 97.9801 71.7216C98.5748 71.3466 99.2661 71.1591 100.054 71.1591C100.842 71.1591 101.531 71.3466 102.122 71.7216C102.717 72.0966 103.179 72.6231 103.509 73.3011C103.842 73.9792 104.009 74.7727 104.009 75.6818C104.009 76.5833 103.842 77.3712 103.509 78.0455C103.179 78.7197 102.717 79.2443 102.122 79.6193C101.531 79.9943 100.842 80.1818 100.054 80.1818ZM100.054 78.9773C100.652 78.9773 101.145 78.8239 101.531 78.517C101.918 78.2102 102.204 77.8068 102.389 77.3068C102.575 76.8068 102.668 76.2652 102.668 75.6818C102.668 75.0985 102.575 74.5549 102.389 74.0511C102.204 73.5473 101.918 73.1402 101.531 72.8295C101.145 72.5189 100.652 72.3636 100.054 72.3636C99.4555 72.3636 98.9631 72.5189 98.5767 72.8295C98.1903 73.1402 97.9044 73.5473 97.7188 74.0511C97.5331 74.5549 97.4403 75.0985 97.4403 75.6818C97.4403 76.2652 97.5331 76.8068 97.7188 77.3068C97.9044 77.8068 98.1903 78.2102 98.5767 78.517C98.9631 78.8239 99.4555 78.9773 100.054 78.9773ZM106.696 71.2727L108.787 74.8409L110.878 71.2727H112.423L109.605 75.6364L112.423 80H110.878L108.787 76.6136L106.696 80H105.151L107.923 75.6364L105.151 71.2727H106.696Z" fill="#344054"/>
<circle cx="175" cy="74" r="12" fill="#344054"/>
<path d="M170.943 80V78.2273L175.085 74.392C175.438 74.0511 175.733 73.7443 175.972 73.4716C176.214 73.1989 176.398 72.9318 176.523 72.6705C176.648 72.4053 176.71 72.1193 176.71 71.8125C176.71 71.4716 176.633 71.178 176.477 70.9318C176.322 70.6818 176.11 70.4905 175.841 70.358C175.572 70.2216 175.267 70.1534 174.926 70.1534C174.57 70.1534 174.259 70.2254 173.994 70.3693C173.729 70.5133 173.525 70.7197 173.381 70.9886C173.237 71.2576 173.165 71.5777 173.165 71.9489H170.83C170.83 71.1875 171.002 70.5265 171.347 69.9659C171.691 69.4053 172.174 68.9716 172.795 68.6648C173.417 68.358 174.133 68.2045 174.943 68.2045C175.777 68.2045 176.502 68.3523 177.119 68.6477C177.741 68.9394 178.223 69.3447 178.568 69.8636C178.913 70.3826 179.085 70.9773 179.085 71.6477C179.085 72.0871 178.998 72.5208 178.824 72.9489C178.653 73.3769 178.348 73.8523 177.909 74.375C177.47 74.8939 176.85 75.517 176.051 76.2443L174.352 77.9091V77.9886H179.239V80H170.943Z" fill="white"/>
<path d="M166 74L114 74.5" stroke="#344054" stroke-dasharray="2 2"/>
<circle cx="59" cy="16" r="12" fill="#344054"/>
<path d="M61.0057 10.3636V22H58.5455V12.6989H58.4773L55.8125 14.3693V12.1875L58.6932 10.3636H61.0057Z" fill="white"/>
<path d="M56 16H12V58" stroke="#344054" stroke-dasharray="2 2"/>
</svg>

<svg width="187" height="90" viewBox="0 0 187 90" fill="none" xmlns="http://www.w3.org/2000/svg"><rect x=".5" y="62.5" width="23" height="23" rx="4.5" fill="#fff" stroke="#98A2B3"/><path d="M44.773 80.182c-.819 0-1.523-.193-2.114-.58a3.777 3.777 0 0 1-1.364-1.596c-.318-.678-.477-1.453-.477-2.324 0-.886.163-1.669.489-2.347.33-.682.788-1.214 1.375-1.596.59-.387 1.28-.58 2.068-.58.614 0 1.167.114 1.66.341a3.19 3.19 0 0 1 1.21.954c.314.41.509.887.585 1.432h-1.341c-.103-.397-.33-.75-.682-1.056-.349-.311-.818-.466-1.41-.466-.522 0-.98.136-1.374.409-.39.269-.695.65-.915 1.142-.216.488-.324 1.062-.324 1.721 0 .675.106 1.262.318 1.762.216.5.52.888.91 1.165.393.276.855.414 1.386.414.348 0 .664-.06.949-.181.284-.122.524-.296.721-.523.197-.227.337-.5.42-.819h1.342c-.076.516-.264.98-.563 1.393a3.15 3.15 0 0 1-1.176.977c-.485.239-1.05.358-1.693.358Zm6.733-5.432V80h-1.341V68.364h1.34v4.272h.114c.205-.45.512-.808.92-1.073.414-.27.963-.404 1.648-.404.595 0 1.116.12 1.563.358a2.41 2.41 0 0 1 1.04 1.085c.25.485.375 1.102.375 1.852V80h-1.341v-5.454c0-.694-.18-1.23-.54-1.609-.356-.382-.85-.573-1.483-.573-.44 0-.833.092-1.182.278a2.036 2.036 0 0 0-.818.813c-.197.356-.295.787-.295 1.295Zm11.771 5.432c-.84 0-1.566-.186-2.176-.557a3.737 3.737 0 0 1-1.404-1.568c-.325-.674-.488-1.459-.488-2.353 0-.893.163-1.681.488-2.363.33-.686.788-1.22 1.375-1.602.591-.387 1.28-.58 2.069-.58.454 0 .903.076 1.346.227.443.152.847.398 1.21.739.364.337.654.784.87 1.34.216.558.324 1.243.324 2.058v.568h-6.728v-1.16h5.364c0-.492-.099-.931-.296-1.317a2.226 2.226 0 0 0-.829-.915c-.356-.224-.776-.335-1.261-.335-.535 0-.997.132-1.387.397a2.615 2.615 0 0 0-.892 1.023c-.208.42-.312.871-.312 1.352v.773c0 .66.113 1.218.34 1.676.232.455.552.801.96 1.04.41.235.885.352 1.427.352.352 0 .67-.049.954-.148.288-.102.537-.253.745-.454.208-.204.37-.458.483-.761l1.295.363a2.87 2.87 0 0 1-.687 1.16c-.322.329-.72.587-1.193.772a4.426 4.426 0 0 1-1.597.273Zm9.199 0c-.818 0-1.523-.193-2.114-.58A3.777 3.777 0 0 1 69 78.006c-.319-.678-.478-1.453-.478-2.324 0-.886.163-1.669.489-2.347.33-.682.788-1.214 1.375-1.596.59-.387 1.28-.58 2.068-.58.614 0 1.167.114 1.66.341a3.19 3.19 0 0 1 1.21.954c.314.41.509.887.585 1.432h-1.341c-.102-.397-.33-.75-.682-1.056-.349-.311-.818-.466-1.41-.466-.522 0-.98.136-1.374.409-.39.269-.695.65-.915 1.142-.216.488-.324 1.062-.324 1.721 0 .675.106 1.262.318 1.762.216.5.52.888.91 1.165.393.276.855.414 1.386.414a2.4 2.4 0 0 0 .949-.181c.284-.122.524-.296.721-.523.197-.227.337-.5.42-.819h1.342c-.076.516-.264.98-.563 1.393a3.142 3.142 0 0 1-1.176.977c-.485.239-1.05.358-1.693.358Zm6.642-3.364-.023-1.659h.273l3.818-3.886h1.66l-4.069 4.113h-.114l-1.545 1.432ZM77.868 80V68.364h1.34V80h-1.34Zm5.545 0-3.409-4.318.955-.932L85.118 80h-1.705Zm3.34 0V68.364h1.34v4.295h.114c.099-.151.235-.345.41-.58.177-.238.431-.45.76-.636.334-.19.785-.284 1.353-.284.735 0 1.383.184 1.943.551.56.368.998.889 1.313 1.563.314.674.471 1.47.471 2.386 0 .924-.157 1.725-.471 2.403-.315.675-.75 1.198-1.307 1.569-.557.367-1.199.55-1.926.55-.56 0-1.01-.092-1.347-.278-.337-.189-.596-.403-.778-.642a8.623 8.623 0 0 1-.42-.602h-.16V80h-1.295Zm1.318-4.364c0 .66.097 1.24.29 1.745.193.5.475.892.846 1.176.372.28.826.42 1.364.42.56 0 1.028-.148 1.403-.443.38-.3.663-.7.853-1.205.193-.507.29-1.071.29-1.693 0-.613-.095-1.166-.285-1.659-.185-.496-.467-.888-.846-1.176-.375-.291-.847-.437-1.415-.437-.545 0-1.004.138-1.375.414-.371.273-.651.656-.84 1.148-.19.489-.285 1.059-.285 1.71Zm11.983 4.546c-.788 0-1.48-.188-2.074-.563-.59-.375-1.053-.9-1.386-1.573-.33-.675-.495-1.463-.495-2.364 0-.91.165-1.703.495-2.38.333-.679.795-1.205 1.386-1.58.595-.375 1.286-.563 2.074-.563.788 0 1.477.188 2.068.563.595.375 1.057.901 1.387 1.58.333.677.5 1.47.5 2.38 0 .901-.167 1.69-.5 2.364a3.77 3.77 0 0 1-1.387 1.573c-.591.375-1.28.563-2.068.563Zm0-1.205c.598 0 1.091-.153 1.477-.46.387-.307.673-.71.858-1.21.186-.5.279-1.042.279-1.625 0-.584-.093-1.127-.279-1.63a2.74 2.74 0 0 0-.858-1.223c-.386-.31-.879-.465-1.477-.465-.599 0-1.09.155-1.477.465a2.741 2.741 0 0 0-.858 1.222 4.679 4.679 0 0 0-.279 1.63c0 .584.093 1.126.279 1.626.185.5.471.903.858 1.21.386.307.879.46 1.477.46Zm6.642-7.704 2.091 3.568 2.091-3.568h1.545l-2.818 4.363L112.423 80h-1.545l-2.091-3.386L106.696 80h-1.545l2.772-4.364-2.772-4.363h1.545Z" fill="#344054"/><circle cx="175" cy="74" r="12" fill="#344054"/><path d="M170.943 80v-1.773l4.142-3.835c.353-.34.648-.648.887-.92.242-.273.426-.54.551-.801.125-.266.187-.552.187-.859 0-.34-.077-.634-.233-.88a1.526 1.526 0 0 0-.636-.574 1.995 1.995 0 0 0-.915-.205c-.356 0-.667.072-.932.216-.265.144-.469.35-.613.62-.144.269-.216.589-.216.96h-2.335c0-.761.172-1.422.517-1.983.344-.56.827-.994 1.448-1.301.622-.307 1.338-.46 2.148-.46.834 0 1.559.147 2.176.443.622.291 1.104.697 1.449 1.216s.517 1.113.517 1.784c0 .44-.087.873-.261 1.3-.171.429-.476.904-.915 1.427-.439.519-1.059 1.142-1.858 1.87l-1.699 1.664v.08h4.887V80h-8.296Z" fill="#fff"/><path d="m166 74-52 .5" stroke="#344054" stroke-dasharray="2 2"/><circle cx="59" cy="16" r="12" fill="#344054"/><path d="M61.006 10.364V22h-2.46v-9.301h-.069l-2.664 1.67v-2.181l2.88-1.824h2.313Z" fill="#fff"/><path d="M56 16H12v42" stroke="#344054" stroke-dasharray="2 2"/></svg>
